X: 3341
M: C
L: 1/8
K: G
(BA) |\
dedB cdcA | BdBG ADEF |\
dBdg bagf | g2g2 g2 :|
|: d2 |\
bdbd bdcB | acac acBA |\
eGeG eGFE | dDdD dBce |\
dbdb caAf | gdBd G2 :|


